WebApp/WebContent/resources/image/trash.svg

<?xml version="1.0" encoding="UTF-8"?>
<svg width="1200pt" height="1200pt" version="1.1" viewBox="0 0 1200 1200" xmlns="http://www.w3.org/2000/svg">
 <g>
  <path d="m900 1e3v-650h-600v650c0 55 45 100 100 100h400c55 0 100-45 100-100z"/>
  <path d="m250 200h700v100h-700z"/>
  <path d="m850 300-150-150h-200l-150 150z"/>
 </g>
</svg>

<?xml version="1.0" encoding="UTF-8" standalone="no"?>
<svg
   version="1.0"
   x="0px"
   y="0px"
   viewBox="0 0 24 24"
   enable-background="new 0 0 24 24"
   xml:space="preserve"
   id="svg142"
   xmlns="http://www.w3.org/2000/svg"
   xmlns:svg="http://www.w3.org/2000/svg"><defs
     id="defs146" /><g
     id="g375"
     transform="matrix(0.02094354,0,0,0.02094354,-0.84373503,-1.1694714)"><path
       d="M 900,1000 V 350 H 300 v 650 c 0,55 45,100 100,100 h 400 c 55,0 100,-45 100,-100 z"
       id="path369" /><path
       d="M 250,200 H 950 V 300 H 250 Z"
       id="path371" /><path
       d="M 850,300 700,150 H 500 L 350,300 Z"
       id="path373" /></g></svg>
